X: 36290
T: Seamus Egan's
R: reel
M: 4/4
K: Dmajor
d2 fd BAFA|Bdeg f3 e|d2 fd BAFA|EAGE FDDA|
defd BAFA|Bdeg f3 e|d2 fd BAFA|EAGE FD D2|
d2 fd Adfd|(3cBA eA (3AAA eA|defg a3 f|gfeg f3 e|
d2 fd Adfd|(3cBA eA (3cBA ec|defd efge|f2 af d4|

